svg/300/outlined/kettle-fill.svg

<svg xmlns="http://www.w3.org/2000/svg" width="48" height="48" viewBox="0 -960 960 960"><path d="M267.309-223.079v-499.92l-102.692-137h543.074v127.308h94.615q23.5 0 40.596 17.096 17.097 17.096 17.097 40.596v214.615q0 23.5-17.097 40.596-17.096 17.096-40.596 17.096h-94.615v179.613H267.309Zm440.382-224.996h94.615q5.385 0 8.847-3.462 3.462-3.462 3.462-8.847v-214.615q0-5.385-3.462-8.847-3.462-3.461-8.847-3.461h-94.615v239.232Zm-197.69 109.612h82.306v-406.151h-82.306v406.151Zm-370 238.462v-45.384h679.998v45.384H140.001Z"/></svg>

<svg xmlns="http://www.w3.org/2000/svg" width="48" height="48" viewBox="0 -960 960 960"><path d="M267.31-223.08V-723L164.62-860h543.07v127.31h94.62q23.5 0 40.59 17.1Q860-698.5 860-675v214.62q0 23.5-17.1 40.59-17.09 17.1-40.59 17.1h-94.62v179.61H267.31Zm440.38-225h94.62q5.38 0 8.84-3.46t3.46-8.84V-675q0-5.38-3.46-8.85-3.46-3.46-8.84-3.46h-94.62v239.23ZM510-338.46h82.31v-406.15H510v406.15ZM140-100v-45.39h680V-100H140Z"/></svg>
